X:1
T: Sir James Baird's New Strathspey
C:R. Mackintosh
R:Strathspey
Q: 128
K:Gm
M:4/4
L:1/16
|:c2|Bd3 d3c Bd3 GB3|Ac3 c3B Ac3 FA3|Bd3 d3c Bd3 Gg3|fedc dcBA BG3 G2c2|
Bd3 d3c Bd3 GB3|Ac3 c3B Ac3 FA3|Bd3 d3c Bd3 Gg3|fedc dcBA BG3 G2d2|
gb3 dg3 Bd3 Gg3|fa3 cf3 Ac3 FA3|gb3 dg3 Bd3 Gg3|fedc dcBA BG3 G3f|
gb3 dg3 Bd3 Gg3|fa3 cf3 Ac3 FA3|Bd3 Gg3 ^fa3 c3e|d3B dcBA BG3 G2:|
